X: 1
T: Le Roi
T: The King
O: France
M: C|
L: 1/8
K: C
"Intro"\
| "C"gfe2 "Am"gfe2 | "Dm"agfe "G7"dcBA \
"A"\
|: "C"G2c2 "Am"ABc2 | "Dm"d3e "G7"d2d2 | "C"G2c2 "Am"ABc2 | "G7"d3c "C"Hc4 :|
"B"\
[| "C"e2dc "G7"d2d2 | "C"eedc "G7"d2d2 | "F"fedc "G7"d2d2 | "F"fedc "G7"d2d2 | "C"edc2 "Am"edc2 | "Dm"fedc "G7"g4 |]
